frontend/svgs/biz042.svg

<?xml version="1.0" encoding="UTF-8"?> <svg width="100px" height="100px" viewBox="0 0 100 100" version="1.1" xmlns="http://www.w3.org/2000/svg" xmlns:xlink="http://www.w3.org/1999/xlink"> <g id="42.-Pin" stroke="none" stroke-width="1" fill="none" fill-rule="evenodd" stroke-linecap="round" stroke-linejoin="round"> <path d="M65.0919375,57.6126738 L85.7185269,30.8578856 L68.8818314,14.0211901 L42.0592684,34.5649228 C47.335976,36.1382935 52.3084627,39.0083833 56.4752716,43.1751921 C60.6477335,47.3476541 63.5199555,52.3279816 65.0919375,57.6126738 L65.0919375,57.6126738 L65.0919375,57.6126738 Z" id="Layer-2" stroke="#3A816D" stroke-width="4" fill="#3A816D"></path> <path d="M32.2316105,68.1115292 L2.44654118,97.8965985" id="Layer-4" stroke="#A4B8CE" stroke-width="4"></path> <path d="M56.4752716,43.1751921 C43.0858673,29.7857878 21.3773537,29.7857878 7.98794943,43.1751921 L56.4752716,91.6625142 C69.8646759,78.2731099 69.8646759,56.5645964 56.4752716,43.1751921 L56.4752716,43.1751921 Z" id="Layer-3" stroke="#55AB94" stroke-width="4" fill="#55AB94"></path> <path d="M68.2505357,3.69288674 C69.3983251,2.54509738 71.2585777,2.54441581 72.4113235,3.69716157 L95.9533021,27.2391402 C97.1034524,28.3892904 97.1016597,30.2558452 95.9575769,31.399928 L93.1873296,34.1701753 C92.0395402,35.3179647 90.1792875,35.3186462 89.0265418,34.1659005 L65.4845632,10.6239219 C64.3344129,9.47377159 64.3362056,7.60721684 65.4802884,6.46313407 L68.2505357,3.69288674 L68.2505357,3.69288674 Z" id="Layer-1" stroke="#55AB94" stroke-width="4" fill="#55AB94"></path> </g> </svg>

<svg width="100" height="100" xmlns="http://www.w3.org/2000/svg"><g fill="none" fill-rule="evenodd" stroke-linecap="round" stroke-linejoin="round" stroke-width="4"><path d="M65.092 57.613l20.627-26.755L68.882 14.02 42.059 34.565a34.134 34.134 0 0114.416 8.61 34.133 34.133 0 018.617 14.438h0z" stroke="#3A816D" fill="#3A816D"/><path d="M32.232 68.112L2.447 97.897" stroke="#A4B8CE"/><path d="M56.475 43.175c-13.39-13.39-35.098-13.39-48.487 0l48.487 48.488c13.39-13.39 13.39-35.098 0-48.488h0zM68.25 3.693a2.94 2.94 0 014.161.004L95.953 27.24a2.945 2.945 0 01.005 4.16l-2.77 2.771a2.94 2.94 0 01-4.161-.004L65.485 10.624a2.945 2.945 0 01-.005-4.16l2.77-2.771h0z" stroke="#55AB94" fill="#55AB94"/></g></svg>
